X: 28972
T: Napkin Tune, The
R: reel
M: 4/4
K: Gmajor
|:DGGF G3A|BAAG GF3|C3G GFGA|D3E DCA,B,|
CGGF G3A|BAAG GF3|A,B,CD EDGF 1|D8:|
|:dcAd cAdc|cBGc BGcB|EFGA B3c|A8|
G=FDG FDGF|=FECF ECFE|A,B,CD EDGF|D8:|


